images/foodle/icons/Icon-01-Discovery.svg

<svg width="135" height="125" viewBox="0 0 135 125" fill="none" xmlns="http://www.w3.org/2000/svg">
<path d="M107.736 16.7823C112.25 15.1231 116.794 13.5122 121.279 11.7662C122.601 11.2549 123.074 11.525 123.556 12.8273C127.067 22.3 130.627 31.7437 134.254 41.1682C134.784 42.5573 134.36 42.9817 133.125 43.4254C130.173 44.4769 127.279 45.673 124.357 46.8113C122.119 47.6023 119.89 48.4029 117.643 49.1939C117.035 49.4062 116.225 50.0332 115.906 49.0107C115.308 47.1296 114.17 48.0074 113.186 48.3836C100.964 52.9657 88.752 57.5766 76.5204 62.1297C75.2278 62.612 74.7648 63.2679 74.813 64.657C74.9095 67.8885 73.559 70.5509 70.8484 72.268C69.3532 73.2133 69.6329 73.85 70.4432 75.0557C78.0349 86.342 85.5687 97.6764 93.1314 108.992C93.5558 109.619 94.0864 110.168 94.5687 110.757C96.2279 114.316 98.7456 117.345 100.906 120.577C101.91 122.082 101.755 122.738 100.241 123.654C97.4626 125.332 97.5398 125.419 95.7359 122.747C93.5848 119.574 91.4143 116.419 89.2439 113.255C88.8581 112.59 88.5108 111.905 88.0864 111.268C82.0285 102.181 75.9706 93.104 69.903 84.0268C69.4979 83.4191 69.0638 82.8403 68.3982 81.895C68.3982 94.2037 68.3982 106.03 68.3982 117.847C68.3789 118.532 68.3307 119.226 68.3307 119.911C68.321 123.586 68.321 123.5 64.7615 123.557C63.2567 123.577 62.6972 123.181 62.8323 121.638C62.948 120.345 62.8033 119.033 62.7744 117.731C62.7744 106.04 62.7744 94.3484 62.7744 82.6571C61.7037 83.5156 61.067 84.4513 60.44 85.3966C54.4207 94.4931 48.411 103.59 42.3917 112.686C39.8837 116.361 37.3177 119.998 34.9062 123.731C34.0669 125.033 33.3917 125.496 32.1473 124.339C31.8676 124.078 31.5396 123.857 31.1923 123.702C29.5139 122.93 29.2823 122.053 30.4399 120.432C32.8515 117.075 35.0316 113.535 37.2984 110.082C44.5718 99.2294 51.8548 88.3773 59.1184 77.5156C59.9287 76.3098 61.1828 75.0943 61.2889 73.8017C61.395 72.5959 59.3403 72.3644 58.53 71.3612C58.4818 71.3033 58.4046 71.2647 58.366 71.2069C57.4207 69.5766 56.1763 69.7599 54.6329 70.358C47.6104 73.0686 40.5203 75.5863 33.5364 78.3934C31.4431 79.2326 30.5074 78.9818 29.9576 76.8114C29.7647 76.0397 29.7936 74.6699 28.1055 75.3451C22.8386 77.4577 17.5235 79.4545 12.2276 81.4899C11.1376 81.8371 9.9704 82.03 8.98647 82.5702C7.14402 83.5734 6.25656 83.2165 5.56202 81.1522C3.95109 76.3773 2.14722 71.6506 0.285483 66.9432C-0.274004 65.5348 -0.0617847 64.9367 1.37552 64.4641C3.55559 63.7502 5.66813 62.8242 7.80962 61.9946C12.054 60.4319 16.2791 58.8113 20.5524 57.3354C22.1441 56.7856 22.4335 55.9271 21.6521 54.6248C20.4077 52.5605 21.3724 51.8756 23.3016 51.1618C49.829 41.255 76.3275 31.2614 102.826 21.2871C103.897 20.882 105.44 20.7758 104.533 18.8659C104.215 18.2003 104.929 17.9977 105.421 17.7855C106.193 17.4575 106.964 17.1199 107.736 16.7823ZM59.62 59.1972C59.5236 59.1779 59.1667 59.1875 59.1281 59.0718C58.5107 57.5959 57.6618 56.1297 57.4689 54.5862C57.3628 53.7567 58.9062 53.6891 59.7165 53.3804C75.9223 47.255 92.1282 41.1393 108.363 35.1006C109.906 34.5219 110.36 33.9913 109.588 32.4093C108.749 30.7019 108.16 28.8691 107.582 27.0556C107.215 25.9366 106.877 25.5122 105.556 26.0138C80.1571 35.6215 54.7583 45.1714 29.3499 54.6827C27.9319 55.2132 27.9704 55.8403 28.4335 57.0364C30.1602 61.4448 31.8676 65.8531 33.4013 70.329C34.009 72.0943 34.7132 72.1715 36.3145 71.5638C53.8612 64.8885 71.4464 58.3001 89.0124 51.6827C96.5462 48.8467 104.061 45.9721 111.614 43.1939C113.012 42.6827 113.234 42.2003 112.742 40.7437C112.125 38.9495 111.209 39.7695 110.302 40.1167C93.9513 46.2711 77.5912 52.4255 61.2406 58.5895C60.739 58.7824 60.2374 58.9657 59.62 59.1972ZM119.881 30.7212C120.556 30.5572 120.836 30.644 120.961 30.9817C121.463 32.3418 122.36 33.7212 122.331 35.0717C122.312 36.3064 120.498 36.0556 119.562 36.6151C119.176 36.8466 118.713 36.9624 118.279 37.1071C117.807 37.2614 117.382 37.4833 117.594 38.0621C118.154 39.5573 118.472 41.3032 119.466 42.4222C120.035 43.0685 121.511 41.882 122.582 41.5347C123.894 41.12 125.148 40.5026 126.459 40.1071C127.521 39.7888 127.733 39.3064 127.337 38.2743C124.926 31.9849 122.533 25.6762 120.199 19.3578C119.852 18.4125 119.504 18.2003 118.559 18.5958C116.582 19.4254 114.585 20.2164 112.54 20.8627C111.402 21.2292 111.363 21.7501 111.739 22.6955C112.829 25.4736 113.91 28.2614 114.894 31.0781C115.279 32.1778 115.82 32.2936 116.775 31.8884C117.913 31.4447 119.07 31.0395 119.881 30.7212ZM27.218 69.2969C26.3113 66.9528 25.4238 64.5895 24.4785 62.2454C24.1601 61.4641 23.5138 61.985 23.0991 62.1393C18.0058 64.03 12.9415 65.9978 7.83856 67.8692C6.86428 68.2261 6.69065 68.6795 7.03791 69.5573C7.79033 71.477 8.56203 73.3966 9.22763 75.3548C9.5749 76.358 10.0186 76.3869 10.9254 76.0397C15.9994 74.0911 21.1023 72.2197 26.1859 70.3001C26.6489 70.1361 27.2952 70.0686 27.218 69.2969ZM62.5429 67.4834C65.2824 69.1425 67.7326 68.7085 68.8612 66.6731C69.0349 66.3644 69.2374 65.9014 69.1217 65.6313C68.9095 65.12 68.35 65.2358 67.9352 65.3998C66.2471 66.0268 64.5686 66.6924 62.5429 67.4834Z" fill="#2A2F37"/>
<path d="M107.736 16.7822C106.964 17.1102 106.192 17.4478 105.411 17.7758C104.919 17.988 104.215 18.1906 104.524 18.8562C105.43 20.7662 103.887 20.8723 102.816 21.2774C76.3274 31.2614 49.8289 41.2453 23.3015 51.1617C21.3723 51.8852 20.4076 52.5605 21.652 54.6248C22.443 55.927 22.144 56.7856 20.5523 57.3354C16.279 58.8113 12.0539 60.4319 7.80952 61.9946C7.19216 49.628 10.0185 38.1488 16.6938 27.6729C20.7742 33.9913 26.4173 37.2517 34.0861 36.6922C43.4141 36.0074 50.9961 26.8723 49.636 17.8626C46.6263 24.152 41.7067 27.2388 35.9575 26.4478C30.6617 25.7147 26.3208 21.6729 25.4141 16.6279C34.8771 7.75326 45.9125 2.02334 58.8482 0.489575C77.6296 -1.71943 94.0573 3.51852 107.736 16.7822ZM68.4078 17.3321C66.2759 16.7051 65.456 17.4382 65.5621 19.7726C65.6489 21.644 65.7743 22.7244 68.0991 22.5121C69.8547 22.3482 71.3306 22.6568 71.0991 20.0041C70.9351 18.1134 71.0894 16.4928 68.4078 17.3321Z" fill="#2F496D"/>
<path d="M94.5688 110.757C94.0864 110.168 93.5463 109.618 93.1315 108.991C85.5687 97.6761 78.035 86.3513 70.4433 75.0555C69.633 73.8593 69.3629 73.213 70.8484 72.2677C73.5591 70.5507 74.9095 67.8786 74.8131 64.6567C74.7745 63.2677 75.2375 62.6117 76.5205 62.1294C88.752 57.5763 100.964 52.9557 113.186 48.3834C114.17 48.0168 115.308 47.1294 115.906 49.0104C116.225 50.0329 117.035 49.4059 117.643 49.1937C119.881 48.4123 122.119 47.6117 124.357 46.811C129.083 71.7468 118.993 95.496 97.9739 108.827C96.8839 109.541 95.707 110.12 94.5688 110.757ZM113.003 63.2773C113.553 61.213 112.926 60.4317 110.659 60.4895C108.546 60.5474 107.543 60.7596 107.649 63.2966C107.736 65.496 108.228 66.1326 110.466 66.094C112.685 66.0748 113.649 65.5346 113.003 63.2773ZM95.5141 83.3803C96.1315 81.2774 95.4562 80.4864 93.0929 80.496C90.9032 80.5057 90.2376 81.0362 90.3147 83.2645C90.3823 85.2227 90.4787 86.2838 92.9385 86.1391C94.9739 86.033 96.2762 85.8883 95.5141 83.3803Z" fill="#2F496D"/>
<path d="M12.2375 81.5091C17.5334 79.4641 22.8485 77.4769 28.1154 75.3644C29.8132 74.6891 29.7746 76.0589 29.9675 76.8306C30.5173 79.001 31.453 79.2615 33.5463 78.4126C40.5206 75.6055 47.6203 73.0878 54.6428 70.3772C56.1862 69.7791 57.4306 69.5959 58.3759 71.2261C58.4145 71.2936 58.4917 71.3226 58.5399 71.3804C59.3502 72.3837 61.4049 72.6152 61.2988 73.821C61.183 75.1136 59.929 76.3194 59.1283 77.5348C51.8647 88.3966 44.5817 99.2487 37.3084 110.101C26.3019 103.638 18.0832 94.6667 12.8163 83.0139C12.5945 82.522 12.4305 82.0107 12.2375 81.5091ZM37.6942 89.2358C38.3791 86.9207 37.3084 86.448 35.1572 86.448C33.0833 86.448 32.2344 86.7663 32.3019 89.1297C32.3694 91.3098 32.6878 92.2069 35.1572 92.0911C37.318 91.985 38.3502 91.5413 37.6942 89.2358Z" fill="#2F496D"/>
<path d="M25.4045 16.6278C26.3113 21.6729 30.6521 25.7243 35.948 26.4478C41.6972 27.2388 46.6168 24.1616 49.6265 17.8626C50.9866 26.8722 43.4142 36.0073 34.0766 36.6922C26.4077 37.2517 20.7646 33.9912 16.6842 27.6729C14.6778 23.197 13.9736 18.615 15.5267 13.8304C18.0347 6.07476 24.9126 1.33842 33.6618 1.66639C27.4303 4.96544 23.8032 9.42204 25.4045 16.6278Z" fill="#FFC003"/>
<path d="M68.3984 117.847C68.3984 106.03 68.3984 94.2037 68.3984 81.895C69.0737 82.8404 69.5078 83.4288 69.9033 84.0269C75.9708 93.1041 82.0287 102.181 88.0866 111.268C88.511 111.905 88.8583 112.59 89.2441 113.255C82.6171 116.275 75.6139 117.529 68.3984 117.847Z" fill="#2F496D"/>
<path d="M42.3918 112.696C48.4112 103.6 54.4208 94.503 60.4401 85.4065C61.0671 84.4612 61.7038 83.5255 62.7745 82.667C62.7745 94.3583 62.7745 106.05 62.7745 117.741C55.6845 117.278 48.8935 115.561 42.3918 112.696Z" fill="#2F496D"/>
<path d="M59.6202 59.1975C60.2376 58.966 60.7392 58.7827 61.2408 58.5898C77.5913 52.4354 93.9419 46.2714 110.302 40.117C111.209 39.7794 112.125 38.9498 112.743 40.7441C113.244 42.191 113.022 42.6733 111.614 43.1942C104.061 45.9724 96.5464 48.847 89.0126 51.683C71.437 58.3004 53.8614 64.8888 36.3147 71.5641C34.7134 72.1718 33.9996 72.0946 33.4015 70.3293C31.8774 65.8534 30.1603 61.4354 28.4337 57.0367C27.9706 55.8406 27.932 55.2135 29.3501 54.683C54.7585 45.1717 80.1573 35.6219 105.537 26.0238C106.858 25.5221 107.206 25.9369 107.562 27.0656C108.151 28.8791 108.739 30.7119 109.569 32.4193C110.341 34.0013 109.887 34.5318 108.344 35.1106C92.1187 41.1492 75.9032 47.2553 59.7071 53.3904C58.8968 53.6991 57.363 53.7666 57.4595 54.5962C57.6524 56.1396 58.5013 57.6058 59.1186 59.0817C59.1669 59.1878 59.5141 59.1782 59.6202 59.1975Z" fill="#FBFBFB"/>
<path d="M119.881 30.7215C119.061 31.0301 117.903 31.4449 116.784 31.9176C115.829 32.3228 115.279 32.207 114.903 31.1073C113.919 28.2906 112.839 25.5028 111.749 22.7246C111.373 21.7697 111.411 21.2488 112.55 20.8918C114.595 20.2455 116.591 19.4545 118.569 18.625C119.514 18.2295 119.861 18.4417 120.209 19.387C122.543 25.7054 124.935 32.0141 127.347 38.3035C127.742 39.3356 127.53 39.8083 126.469 40.1363C125.157 40.5318 123.903 41.1491 122.591 41.5639C121.521 41.9016 120.045 43.0881 119.476 42.4514C118.472 41.3324 118.164 39.5864 117.604 38.0913C117.382 37.5125 117.816 37.2906 118.289 37.1363C118.723 36.9916 119.186 36.8758 119.572 36.6443C120.508 36.0752 122.321 36.326 122.341 35.1009C122.36 33.7408 121.472 32.371 120.971 31.0108C120.836 30.6443 120.566 30.5575 119.881 30.7215Z" fill="#FBFBFB"/>
<path d="M27.2179 69.2967C27.295 70.078 26.6487 70.1359 26.1857 70.3095C21.1021 72.2291 15.9992 74.1005 10.9252 76.0491C10.0185 76.3964 9.56509 76.3674 9.22746 75.3642C8.56187 73.406 7.79016 71.4864 7.03775 69.5668C6.69048 68.6793 6.86411 68.2356 7.83839 67.8787C12.9413 66.0073 18.0056 64.0394 23.0989 62.1487C23.504 61.9944 24.16 61.4735 24.4783 62.2548C25.4333 64.5796 26.3208 66.9526 27.2179 69.2967Z" fill="#FBFBFB"/>
<path d="M62.543 67.4837C64.5687 66.7024 66.2472 66.0368 67.9353 65.4001C68.3597 65.2458 68.9096 65.1204 69.1218 65.6316C69.2375 65.9017 69.035 66.3648 68.8613 66.6734C67.7327 68.7088 65.2825 69.1429 62.543 67.4837Z" fill="#2F496D"/>
<path d="M68.4077 17.3325C71.0894 16.4932 70.9351 18.1042 71.0991 19.9948C71.3306 22.6476 69.845 22.3389 68.099 22.5029C65.7743 22.7151 65.6489 21.6347 65.5621 19.7633C65.4463 17.4386 66.2759 16.7054 68.4077 17.3325Z" fill="#FBFBFB"/>
<path d="M113.003 63.2773C113.64 65.5345 112.675 66.0747 110.466 66.1036C108.228 66.1326 107.736 65.4959 107.649 63.3062C107.543 60.7596 108.546 60.557 110.659 60.4991C112.926 60.4316 113.553 61.2129 113.003 63.2773Z" fill="#FBFBFB"/>
<path d="M95.5139 83.3806C96.276 85.8886 94.9738 86.0333 92.9384 86.1491C90.4882 86.2937 90.3917 85.2326 90.3146 83.2744C90.2374 81.0461 90.8934 80.5156 93.0927 80.5059C95.4561 80.4963 96.1313 81.2873 95.5139 83.3806Z" fill="#FBFBFB"/>
<path d="M37.6941 89.2359C38.3501 91.5414 37.3179 91.9851 35.1571 92.0816C32.6973 92.1973 32.3693 91.3002 32.3018 89.1202C32.2343 86.7568 33.0832 86.4385 35.1571 86.4385C37.3083 86.4481 38.379 86.9208 37.6941 89.2359Z" fill="#FBFBFB"/>
</svg>

<svg xmlns="http://www.w3.org/2000/svg" width="135" height="125" fill="none"><path d="M107.736 16.782l13.543-5.016c1.322-.51 1.795-.24 2.277 1.06l10.698 28.34c.53 1.39.106 1.813-1.13 2.257l-8.768 3.386-6.714 2.383c-.608.212-1.418.84-1.737-.183-.598-1.88-1.736-1.003-2.72-.627L76.52 62.13c-1.293.482-1.756 1.138-1.707 2.527.096 3.23-1.254 5.894-3.965 7.61-1.495.945-1.215 1.582-.405 2.788l22.688 33.936c.424.627.955 1.176 1.437 1.765 1.66 3.56 4.177 6.588 6.337 9.82 1.004 1.505.85 2.16-.665 3.077-2.778 1.678-2.7 1.765-4.505-.907l-6.492-9.492c-.386-.665-.733-1.35-1.157-1.987l-18.183-27.24c-.405-.608-.84-1.186-1.505-2.132v35.952c-.02.685-.068 1.38-.068 2.064-.01 3.675-.01 3.59-3.57 3.646-1.505.02-2.064-.376-1.93-1.92.116-1.293-.03-2.605-.058-3.907V82.657c-1.07.86-1.707 1.794-2.334 2.74l-18.048 27.29-7.486 11.045c-.84 1.302-1.514 1.765-2.76.608a3.52 3.52 0 0 0-.955-.637c-1.678-.772-1.9-1.65-.752-3.27 2.412-3.357 4.592-6.897 6.858-10.35l21.82-32.566c.8-1.206 2.064-2.42 2.17-3.714.106-1.206-1.95-1.437-2.76-2.44-.048-.058-.125-.096-.164-.154-.945-1.63-2.2-1.447-3.733-.85l-21.096 8.035c-2.093.84-3.03.588-3.58-1.582-.193-.772-.164-2.142-1.852-1.466L12.228 81.5c-1.1.347-2.257.54-3.24 1.08-1.842 1.003-2.73.646-3.424-1.418-1.61-4.775-3.415-9.502-5.277-14.21-.56-1.408-.347-2.007 1.1-2.48 2.18-.714 4.293-1.64 6.434-2.47l12.743-4.66c1.592-.55 1.88-1.408 1.1-2.71-1.244-2.064-.28-2.75 1.65-3.463l79.524-29.875c1.07-.405 2.614-.51 1.707-2.42-.318-.666.396-.868.888-1.08l2.315-1.003zM59.62 59.197c-.096-.02-.453-.01-.492-.125-.617-1.476-1.466-2.942-1.66-4.486-.106-.83 1.437-.897 2.248-1.206l48.646-18.28c1.543-.58 1.997-1.11 1.225-2.69-.84-1.707-1.428-3.54-2.006-5.354-.367-1.12-.705-1.543-2.026-1.042L29.35 54.683c-1.418.53-1.38 1.158-.916 2.354 1.727 4.408 3.434 8.817 4.968 13.293.608 1.765 1.312 1.843 2.913 1.235l52.698-19.88 22.602-8.49c1.398-.51 1.62-.994 1.128-2.45-.617-1.794-1.533-.974-2.44-.627L61.24 58.6l-1.62.608zm60.26-28.476c.675-.164.955-.077 1.08.26.502 1.36 1.4 2.74 1.37 4.1-.02 1.235-1.833.984-2.77 1.543-.386.232-.85.347-1.283.492-.472.154-.897.376-.685.955.56 1.495.878 3.24 1.872 4.36.57.646 2.045-.54 3.116-.887 1.312-.415 2.566-1.032 3.877-1.428 1.062-.318 1.274-.8.878-1.833L120.2 19.358c-.347-.945-.695-1.158-1.64-.762-1.977.83-3.974 1.62-6.02 2.267-1.138.366-1.177.887-.8 1.833l3.155 8.383c.385 1.1.926 1.215 1.88.8l3.106-1.167zM27.218 69.297l-2.74-7.05c-.318-.78-.965-.26-1.38-.106L7.84 67.87c-.974.357-1.148.8-.8 1.688.752 1.92 1.524 3.84 2.2 5.797.347 1.003.79 1.032 1.698.685l15.26-5.74c.463-.164 1.11-.23 1.032-1.003zm35.325-1.813c2.74 1.66 5.2 1.225 6.318-.8.174-.31.376-.772.26-1.042-.212-.51-.772-.395-1.187-.23l-5.392 2.084z" fill="#2a2f37"/><path d="M107.736 16.782l-2.325.994c-.492.212-1.196.415-.887 1.08.906 1.9-.637 2.016-1.708 2.42L23.302 51.162c-1.93.723-2.894 1.4-1.65 3.463.8 1.302.492 2.16-1.1 2.7-4.273 1.476-8.498 3.096-12.743 4.66-.617-12.367 2.2-23.846 8.884-34.322 4.08 6.318 9.724 9.58 17.392 9.02 9.328-.685 16.9-9.82 15.55-18.83-3 6.3-7.93 9.376-13.678 8.585-5.296-.733-9.637-4.775-10.543-9.82C34.877 7.753 45.913 2.023 58.848.5c18.78-2.2 35.2 3.03 48.888 16.293zm-39.328.55c-2.132-.627-2.952.106-2.846 2.44.087 1.87.212 2.952 2.537 2.74 1.756-.164 3.23.145 3-2.508-.164-1.9-.01-3.5-2.7-2.672zm26.162 93.425l-1.437-1.766-22.688-33.936c-.8-1.196-1.08-1.843.405-2.788 2.7-1.717 4.06-4.4 3.965-7.6-.04-1.4.424-2.045 1.707-2.527l36.666-13.746c.984-.367 2.122-1.254 2.72.627.32 1.023 1.13.396 1.737.183l6.714-2.383c4.726 24.936-5.364 48.685-26.383 62.016-1.1.714-2.267 1.293-3.405 1.93zm18.434-47.48c.55-2.064-.077-2.846-2.344-2.788-2.113.058-3.116.27-3 2.807.087 2.2.58 2.836 2.817 2.797 2.22-.02 3.183-.56 2.537-2.817zm-17.5 20.103c.617-2.103-.058-2.894-2.42-2.884-2.2.01-2.855.54-2.778 2.77.068 1.958.164 3.02 2.624 2.875 2.035-.106 3.338-.25 2.576-2.76zM12.238 81.5l15.878-6.145c1.698-.675 1.66.694 1.852 1.466.55 2.17 1.485 2.43 3.58 1.582 6.974-2.807 14.074-5.325 21.097-8.035 1.543-.598 2.788-.78 3.733.85.04.067.116.096.164.154.8 1.003 2.865 1.235 2.76 2.44-.116 1.293-1.37 2.498-2.17 3.714L37.308 110.1c-11.006-6.463-19.225-15.434-24.492-27.087-.222-.492-.386-1.003-.58-1.505zm25.457 7.727c.685-2.315-.386-2.788-2.537-2.788-2.074 0-2.923.318-2.855 2.682.067 2.18.386 3.077 2.855 2.96 2.16-.106 3.193-.55 2.537-2.855z" fill="#2f496d"/><path d="M25.405 16.628c.907 5.045 5.248 9.096 10.544 9.82 5.75.79 10.67-2.286 13.68-8.585 1.36 9-6.212 18.145-15.55 18.83-7.67.56-13.312-2.7-17.392-9.02-2.006-4.476-2.71-9.058-1.158-13.842 2.508-7.756 9.386-12.492 18.135-12.164-6.232 3.3-9.86 7.756-8.257 14.96z" fill="#ffc003"/><path d="M68.398 117.847V81.895l1.505 2.132 18.183 27.24c.424.637.772 1.322 1.157 1.987-6.627 3.02-13.63 4.274-20.846 4.592zm-26.006-5.15l18.048-27.3c.627-.945 1.264-1.88 2.334-2.74v35.074c-7.1-.463-13.88-2.18-20.383-5.045z" fill="#2f496d"/><path d="M59.62 59.198l1.62-.608 49.06-18.473c.907-.338 1.823-1.167 2.44.627.5 1.447.28 1.93-1.13 2.45l-22.6 8.5-52.698 19.88c-1.6.608-2.315.53-2.913-1.235-1.524-4.476-3.24-8.894-4.968-13.293-.463-1.196-.502-1.823.916-2.354l76.187-28.66c1.32-.502 1.67-.087 2.025 1.042.6 1.814 1.177 3.646 2.007 5.354.772 1.582.318 2.112-1.225 2.7L59.707 53.4c-.8.3-2.344.376-2.248 1.206.193 1.543 1.042 3 1.66 4.485.048.106.395.096.502.116zm60.26-28.476l-3.097 1.196c-.955.405-1.505.3-1.88-.8l-3.154-8.383c-.376-.955-.338-1.476.8-1.833 2.045-.646 4.04-1.437 6.02-2.267.945-.395 1.292-.183 1.64.762l7.138 18.917c.395 1.032.183 1.505-.878 1.833-1.312.395-2.566 1.013-3.878 1.428-1.07.338-2.546 1.524-3.115.888-1.004-1.12-1.312-2.865-1.872-4.36-.222-.58.212-.8.685-.955.434-.145.897-.26 1.283-.492.936-.57 2.75-.318 2.77-1.543.02-1.36-.87-2.73-1.37-4.1-.135-.366-.405-.453-1.1-.3zM27.218 69.297c.077.78-.57.84-1.032 1.013l-15.26 5.74c-.907.347-1.36.318-1.698-.685l-2.2-5.797c-.347-.888-.174-1.33.8-1.688l15.26-5.73c.405-.154 1.06-.675 1.38.106l2.74 7.042z" fill="#fbfbfb"/><path d="M62.543 67.484l5.392-2.084c.424-.154.974-.28 1.186.232.116.27-.087.733-.26 1.042-1.13 2.035-3.58 2.47-6.318.8z" fill="#2f496d"/><path d="M68.408 17.333c2.682-.84 2.527.772 2.7 2.662.23 2.653-1.254 2.344-3 2.508-2.325.212-2.45-.868-2.537-2.74-.116-2.325.714-3.058 2.846-2.43zm44.595 45.944c.637 2.257-.328 2.797-2.537 2.826-2.238.03-2.73-.608-2.817-2.797-.106-2.547.897-2.75 3-2.807 2.267-.067 2.894.714 2.344 2.778zM95.514 83.38c.762 2.508-.54 2.653-2.576 2.77-2.45.145-2.547-.916-2.624-2.875-.077-2.228.58-2.76 2.778-2.77 2.363-.01 3.04.78 2.42 2.875zm-57.82 5.856c.656 2.305-.376 2.75-2.537 2.846-2.46.116-2.788-.78-2.855-2.96-.068-2.363.78-2.682 2.855-2.682 2.15.01 3.222.482 2.537 2.797z" fill="#fbfbfb"/></svg>
